brandFactory_export/2.Regular/Banda ancha_2Regular.svg

<?xml version="1.0" encoding="UTF-8"?>
<svg width="24px" height="24px" viewBox="0 0 24 24" version="1.1" xmlns="http://www.w3.org/2000/svg" xmlns:xlink="http://www.w3.org/1999/xlink">
    <title>2.Regular/Banda ancha_2Regular</title>
    <g id="Symbols" stroke="none" stroke-width="1" fill="none" fill-rule="evenodd">
        <g id="2.Regular/Banda-ancha_2Regular" fill="#5CB615" fill-rule="nonzero">
            <path d="M6.23865546,4.96806723 C6.60840336,4.96806723 6.91092437,5.27058824 6.91092437,5.64033613 L6.91,14.1142546 L19.6840336,14.1142857 C20.9680672,14.1142857 21.9630252,14.4739496 22.6453782,15.1798319 C23.3008403,15.8588235 23.6336134,16.8302521 23.6336134,18.0638655 L23.6336134,19.7109244 C23.6336134,20.9445378 23.3008403,21.912605 22.6453782,22.594958 C21.9630252,23.3042017 20.9647059,23.6605042 19.6840336,23.6605042 L3.94957983,23.6605042 C2.66554622,23.6605042 1.67058824,23.3008403 0.988235294,22.594958 C0.332773109,21.912605 -1.67082348e-10,20.9445378 -1.67082348e-10,19.7109244 L-1.67082348e-10,18.0638655 C-1.67082348e-10,16.8302521 0.332773109,15.8621849 0.988235294,15.1798319 C1.67058824,14.4705882 2.66554622,14.1142857 3.94957983,14.1142857 L5.566,14.1142546 L5.56638655,5.64033613 C5.56638655,5.27058824 5.86890756,4.96806723 6.23865546,4.96806723 Z M19.6840336,15.4588235 L3.94957983,15.4588235 C3.04537815,15.4588235 2.37647059,15.6806723 1.95630252,16.1142857 C1.54957983,16.5344538 1.34453781,17.189916 1.34453781,18.0638655 L1.34453781,19.7109244 C1.34453781,20.5848739 1.54957983,21.2403361 1.95630252,21.6605042 C2.37647059,22.0941176 3.04537815,22.3159664 3.94957983,22.3159664 L19.6840336,22.3159664 C20.5882353,22.3159664 21.2571429,22.0941176 21.6773109,21.6605042 C22.0840336,21.2403361 22.2890756,20.5848739 22.2890756,19.7109244 L22.2890756,18.0638655 C22.2890756,17.189916 22.0840336,16.5344538 21.6773109,16.1142857 C21.2571429,15.6806723 20.5882353,15.4588235 19.6840336,15.4588235 Z M3.91932773,17.9159664 C4.62184874,17.9159664 5.05882353,18.3495798 5.05882353,19.0487395 C5.05882353,19.394958 4.95798319,19.6705882 4.75966387,19.8722689 C4.56134454,20.0739496 4.26890756,20.1815126 3.91932773,20.1815126 C3.5697479,20.1815126 3.28067227,20.0739496 3.0789916,19.8722689 C2.87731092,19.6705882 2.77983193,19.394958 2.77983193,19.0487395 C2.77983193,18.3495798 3.21680672,17.9159664 3.91932773,17.9159664 Z M7.21008403,17.9159664 C7.91260504,17.9159664 8.34957983,18.3495798 8.34957983,19.0487395 C8.34957983,19.394958 8.2487395,19.6705882 8.05042017,19.8722689 C7.85210084,20.0739496 7.55630252,20.1815126 7.21008403,20.1815126 C6.8605042,20.1815126 6.57142857,20.0739496 6.3697479,19.8722689 C6.16806723,19.6705882 6.07058824,19.394958 6.07058824,19.0487395 C6.07058824,18.3495798 6.50756303,17.9159664 7.21008403,17.9159664 Z M12.8571429,0.221848739 C14.1310924,1.4487395 14.7764706,3.27058824 14.7764706,5.64033613 C14.7764706,8 14.1344538,9.81848739 12.8705882,11.0453782 C12.7462185,11.1663866 12.5781513,11.2336134 12.4033613,11.2336134 C12.0336134,11.2336134 11.7310924,10.9344538 11.7277311,10.5647059 C11.7277311,10.3831933 11.8016807,10.205042 11.9327731,10.0806723 C12.9243697,9.11596639 13.4285714,7.62352941 13.4285714,5.64033613 C13.4285714,3.65042017 12.9210084,2.15462185 11.9226891,1.18991597 C11.6537815,0.931092437 11.6470588,0.507563025 11.9058824,0.238655462 C12.1647059,-0.0302521008 12.5882353,-0.0369747899 12.8571429,0.221848739 Z M10.1647059,1.9092437 C11.0487395,2.75630252 11.4957983,4.01344538 11.4957983,5.64033613 C11.4957983,7.2605042 11.0487395,8.51428571 10.1714286,9.36806723 C10.0470588,9.48571429 9.8789916,9.55630252 9.70420168,9.55630252 C9.33445378,9.55630252 9.03193277,9.25378151 9.03193277,8.88403361 C9.03193277,8.70252101 9.10588235,8.52773109 9.23697479,8.40336134 C9.84537815,7.81176471 10.1546218,6.88403361 10.1546218,5.64369748 C10.1546218,4.40336134 9.84537815,3.46554622 9.2302521,2.87731092 C8.96806723,2.61512605 8.96806723,2.18823529 9.2302521,1.92605042 C9.48571429,1.67058824 9.89915966,1.66386555 10.1647059,1.9092437 Z" id="Banda-ancha_2Regular"></path>
        </g>
    </g>
</svg>

<svg width="24" height="24" viewBox="0 0 24 24" xmlns="http://www.w3.org/2000/svg"><path d="M6.239 4.968c.37 0 .672.303.672.672l-.001 8.474h12.774c1.284 0 2.279.36 2.961 1.066.656.679.989 1.65.989 2.884v1.647c0 1.234-.333 2.202-.989 2.884-.682.71-1.68 1.066-2.961 1.066H3.95c-1.284 0-2.28-.36-2.962-1.066C.333 21.913 0 20.945 0 19.711v-1.647c0-1.234.333-2.202.988-2.884.683-.71 1.678-1.066 2.962-1.066h1.616V5.64c0-.37.303-.672.673-.672zm13.445 10.49H3.95c-.905 0-1.574.223-1.994.656-.406.42-.611 1.076-.611 1.95v1.647c0 .874.205 1.53.611 1.95.42.433 1.09.655 1.994.655h15.734c.904 0 1.573-.222 1.993-.655.407-.42.612-1.076.612-1.95v-1.647c0-.874-.205-1.53-.612-1.95-.42-.433-1.089-.655-1.993-.655zM3.919 17.917c.703 0 1.14.434 1.14 1.133 0 .346-.101.622-.3.823-.198.202-.49.31-.84.31s-.638-.108-.84-.31c-.202-.201-.3-.477-.3-.823 0-.7.438-1.133 1.14-1.133zm3.291 0c.703 0 1.14.434 1.14 1.133 0 .346-.101.622-.3.823-.198.202-.494.31-.84.31-.35 0-.639-.108-.84-.31-.202-.201-.3-.477-.3-.823 0-.7.438-1.133 1.14-1.133zM12.857.222c1.274 1.227 1.92 3.049 1.92 5.418 0 2.36-.643 4.178-1.906 5.405a.676.676 0 01-1.143-.48.67.67 0 01.205-.484c.991-.965 1.496-2.457 1.496-4.44 0-1.99-.508-3.486-1.506-4.451a.67.67 0 01-.017-.951.67.67 0 01.951-.017zm-2.692 1.687c.884.847 1.33 2.104 1.33 3.731 0 1.62-.446 2.874-1.324 3.728a.674.674 0 01-1.14-.484c0-.181.075-.356.206-.48.608-.592.918-1.52.918-2.76 0-1.24-.31-2.178-.925-2.767a.674.674 0 01.935-.968z" fill="#5CB615" fill-rule="nonzero"/></svg>
